cssgg/smartphone-chip.svg

<svg
  width="24"
  height="24"
  viewBox="0 0 24 24"
  fill="none"
  xmlns="http://www.w3.org/2000/svg"
>
  <path
    fill-rule="evenodd"
    clip-rule="evenodd"
    d="M9 22C9 22.5523 8.55228 23 8 23C7.44772 23 7 22.5523 7 22C7 21.4477 7.44772 21 8 21C8.55228 21 9 21.4477 9 22ZM13 22C13 22.5523 12.5523 23 12 23C11.4477 23 11 22.5523 11 22C11 21.4477 11.4477 21 12 21C12.5523 21 13 21.4477 13 22ZM16 23C16.5523 23 17 22.5523 17 22C17 21.4477 16.5523 21 16 21C15.4477 21 15 21.4477 15 22C15 22.5523 15.4477 23 16 23Z"
    fill="currentColor"
  />
  <path
    fill-rule="evenodd"
    clip-rule="evenodd"
    d="M9 2C9 2.55228 8.55228 3 8 3C7.44772 3 7 2.55228 7 2C7 1.44772 7.44772 1 8 1C8.55228 1 9 1.44772 9 2ZM13 2C13 2.55228 12.5523 3 12 3C11.4477 3 11 2.55228 11 2C11 1.44772 11.4477 1 12 1C12.5523 1 13 1.44772 13 2ZM16 3C16.5523 3 17 2.55228 17 2C17 1.44772 16.5523 1 16 1C15.4477 1 15 1.44772 15 2C15 2.55228 15.4477 3 16 3ZM9 22C9 22.5523 8.55228 23 8 23C7.44772 23 7 22.5523 7 22C7 21.4477 7.44772 21 8 21C8.55228 21 9 21.4477 9 22ZM13 22C13 22.5523 12.5523 23 12 23C11.4477 23 11 22.5523 11 22C11 21.4477 11.4477 21 12 21C12.5523 21 13 21.4477 13 22ZM16 23C16.5523 23 17 22.5523 17 22C17 21.4477 16.5523 21 16 21C15.4477 21 15 21.4477 15 22C15 22.5523 15.4477 23 16 23ZM23 16C23 15.4477 22.5523 15 22 15C21.4477 15 21 15.4477 21 16C21 16.5523 21.4477 17 22 17C22.5523 17 23 16.5523 23 16ZM23 12C23 11.4477 22.5523 11 22 11C21.4477 11 21 11.4477 21 12C21 12.5523 21.4477 13 22 13C22.5523 13 23 12.5523 23 12ZM22 7C22.5523 7 23 7.44771 23 8C23 8.55229 22.5523 9 22 9C21.4477 9 21 8.55229 21 8C21 7.44771 21.4477 7 22 7ZM2 15C2.55228 15 3 15.4477 3 16C3 16.5523 2.55228 17 2 17C1.44772 17 1 16.5523 1 16C1 15.4477 1.44772 15 2 15ZM2 11C2.55228 11 3 11.4477 3 12C3 12.5523 2.55228 13 2 13C1.44772 13 1 12.5523 1 12C1 11.4477 1.44772 11 2 11ZM3 8C3 7.44771 2.55228 7 2 7C1.44772 7 1 7.44771 1 8C1 8.55229 1.44772 9 2 9C2.55228 9 3 8.55229 3 8ZM17 6H7C6.44772 6 6 6.44772 6 7V17C6 17.5523 6.44772 18 7 18H17C17.5523 18 18 17.5523 18 17V7C18 6.44772 17.5523 6 17 6ZM7 4C5.34315 4 4 5.34315 4 7V17C4 18.6569 5.34315 20 7 20H17C18.6569 20 20 18.6569 20 17V7C20 5.34315 18.6569 4 17 4H7ZM14 10H10V14H14V10ZM8 8V16H16V8H8Z"
    fill="currentColor"
  />
</svg>

<svg viewBox="0 0 24 24" xmlns="http://www.w3.org/2000/svg"><g fill-rule="evenodd"><path d="M9 22c0 .55-.45 1-1 1 -.56 0-1-.45-1-1 0-.56.44-1 1-1 .55 0 1 .44 1 1Zm4 0c0 .55-.45 1-1 1 -.56 0-1-.45-1-1 0-.56.44-1 1-1 .55 0 1 .44 1 1Zm3 1c.55 0 1-.45 1-1 0-.56-.45-1-1-1 -.56 0-1 .44-1 1 0 .55.44 1 1 1Z"/><path d="M9 2c0 .55-.45 1-1 1 -.56 0-1-.45-1-1 0-.56.44-1 1-1 .55 0 1 .44 1 1Zm4 0c0 .55-.45 1-1 1 -.56 0-1-.45-1-1 0-.56.44-1 1-1 .55 0 1 .44 1 1Zm3 1c.55 0 1-.45 1-1 0-.56-.45-1-1-1 -.56 0-1 .44-1 1 0 .55.44 1 1 1ZM9 22c0 .55-.45 1-1 1 -.56 0-1-.45-1-1 0-.56.44-1 1-1 .55 0 1 .44 1 1Zm4 0c0 .55-.45 1-1 1 -.56 0-1-.45-1-1 0-.56.44-1 1-1 .55 0 1 .44 1 1Zm3 1c.55 0 1-.45 1-1 0-.56-.45-1-1-1 -.56 0-1 .44-1 1 0 .55.44 1 1 1Zm7-7c0-.56-.45-1-1-1 -.56 0-1 .44-1 1 0 .55.44 1 1 1 .55 0 1-.45 1-1Zm0-4c0-.56-.45-1-1-1 -.56 0-1 .44-1 1 0 .55.44 1 1 1 .55 0 1-.45 1-1Zm-1-5c.55 0 1 .44 1 1 0 .55-.45 1-1 1 -.56 0-1-.45-1-1 0-.56.44-1 1-1ZM2 15c.55 0 1 .44 1 1 0 .55-.45 1-1 1 -.56 0-1-.45-1-1 0-.56.44-1 1-1Zm0-4c.55 0 1 .44 1 1 0 .55-.45 1-1 1 -.56 0-1-.45-1-1 0-.56.44-1 1-1Zm1-3c0-.56-.45-1-1-1 -.56 0-1 .44-1 1 0 .55.44 1 1 1 .55 0 1-.45 1-1Zm14-2H7c-.56 0-1 .44-1 1v10c0 .55.44 1 1 1h10c.55 0 1-.45 1-1V7c0-.56-.45-1-1-1ZM7 4C5.34 4 4 5.34 4 7v10c0 1.65 1.34 3 3 3h10c1.65 0 3-1.35 3-3V7c0-1.66-1.35-3-3-3H7Zm7 6h-4v4h4v-4ZM8 8v8h8V8H8Z"/></g></svg>
